svg/fluentui-system-icons/ic_fluent_book_dismiss_16_filled.svg

<svg width="16" height="16" viewBox="0 0 16 16" fill="none" xmlns="http://www.w3.org/2000/svg">
<path d="M11 1H5C3.89543 1 3 1.89543 3 3V13C3 14.1046 3.89543 15 5 15H7.25716C7.00353 14.6929 6.78261 14.3578 6.59971 14H5C4.44772 14 4 13.5523 4 13V12.9969H6.20617C6.07186 12.521 6 12.0189 6 11.5C6 8.46243 8.46243 6 11.5 6C12.02 6 12.5232 6.07217 13 6.20703V3C13 1.89543 12.1046 1 11 1ZM5.75 3H10.25C10.6642 3 11 3.33579 11 3.75V4.25C11 4.66421 10.6642 5 10.25 5H5.75C5.33579 5 5 4.66421 5 4.25V3.75C5 3.33579 5.33579 3 5.75 3ZM16 11.5C16 13.9853 13.9853 16 11.5 16C9.01472 16 7 13.9853 7 11.5C7 9.01472 9.01472 7 11.5 7C13.9853 7 16 9.01472 16 11.5ZM13.3536 10.3536C13.5488 10.1583 13.5488 9.84171 13.3536 9.64645C13.1583 9.45118 12.8417 9.45118 12.6464 9.64645L11.5 10.7929L10.3536 9.64645C10.1583 9.45118 9.84171 9.45118 9.64645 9.64645C9.45118 9.84171 9.45118 10.1583 9.64645 10.3536L10.7929 11.5L9.64645 12.6464C9.45118 12.8417 9.45118 13.1583 9.64645 13.3536C9.84171 13.5488 10.1583 13.5488 10.3536 13.3536L11.5 12.2071L12.6464 13.3536C12.8417 13.5488 13.1583 13.5488 13.3536 13.3536C13.5488 13.1583 13.5488 12.8417 13.3536 12.6464L12.2071 11.5L13.3536 10.3536Z" fill="#212121"/>
</svg>

<svg xmlns="http://www.w3.org/2000/svg" width="16" height="16"><path d="M11 1H5a2 2 0 0 0-2 2v10a2 2 0 0 0 2 2h2.257a5.507 5.507 0 0 1-.657-1H5a1 1 0 0 1-1-1v-.003h2.206A5.5 5.5 0 0 1 13 6.207V3a2 2 0 0 0-2-2ZM5.75 3h4.5a.75.75 0 0 1 .75.75v.5a.75.75 0 0 1-.75.75h-4.5A.75.75 0 0 1 5 4.25v-.5A.75.75 0 0 1 5.75 3ZM16 11.5a4.5 4.5 0 1 1-9 0 4.5 4.5 0 0 1 9 0Zm-2.646-1.146a.5.5 0 0 0-.708-.708L11.5 10.793l-1.146-1.147a.5.5 0 0 0-.708.708l1.147 1.146-1.147 1.146a.5.5 0 0 0 .708.708l1.146-1.147 1.146 1.147a.5.5 0 0 0 .708-.708L12.207 11.5l1.147-1.146Z"/></svg>
